.local/share/icons/Gruvbox-Plus-Dark/actions/16/object-tweak-paint.svg

<svg width="16" height="16" version="1.1" xmlns="http://www.w3.org/2000/svg">
  <defs>
    <style id="current-color-scheme" type="text/css">.ColorScheme-Text { color:#ebdbb2; } .ColorScheme-Highlight { color:#458588; }</style>
  </defs>
  <path class="ColorScheme-Text" d="m6 6h4v4h-4z" fill="currentColor"/>
  <path class="ColorScheme-Text" d="m6 10h4v4h-4zm-4-4h4v4h-4zm8 0h4v4h-4zm-4-4h4v4h-4z" fill="currentColor" opacity=".3"/>
</svg>

<svg xmlns="http://www.w3.org/2000/svg" width="16" height="16" version="1.1">
 <defs>
  <style id="current-color-scheme" type="text/css">
   .ColorScheme-Text { color:#565656; } .ColorScheme-Highlight { color:#4285f4; }
  </style>
 </defs>
 <path style="fill:currentColor" class="ColorScheme-Text" d="M 6,6 H 10 V 10 H 6 Z"/>
 <path style="opacity:0.3;fill:currentColor" class="ColorScheme-Text" d="M 6,10 H 10 V 14 H 6 Z M 2,6 H 6 V 10 H 2 Z M 10,6 H 14 V 10 H 10 Z M 6,2 H 10 V 6 H 6 Z"/>
</svg>
